content/podcast/s05e04-roc/logo.svg

<svg id="homepage-logo" aria-labelledby="logo-svg-title logo-svg-desc" width="240" height="240" viewBox="0 0 51 53" xmlns="http://www.w3.org/2000/svg"><title id="logo-svg-title">The Roc logo</title><desc id="logo-svg-desc">An origami bird made of six triangles</desc><path d="M23.6751 22.7086L17.655 53L27.4527 45.2132L26.4673 39.3424L23.6751 22.7086Z"></path><path d="M37.2438 19.0101L44.0315 26.3689L45 22L45.9665 16.6324L37.2438 19.0101Z"></path><path d="M23.8834 3.21052L0 0L23.6751 22.7086L23.8834 3.21052Z"></path><path d="M44.0315 26.3689L23.6751 22.7086L26.4673 39.3424L44.0315 26.3689Z"></path><path d="M50.5 22L45.9665 16.6324L45 22H50.5Z"></path><path d="M23.6751 22.7086L44.0315 26.3689L37.2438 19.0101L23.8834 3.21052L23.6751 22.7086Z"></path>
</svg>

<svg xmlns="http://www.w3.org/2000/svg" width="240" height="240" aria-labelledby="logo-svg-title logo-svg-desc" viewBox="0 0 51 53"><title>The Roc logo</title><desc>An origami bird made of six triangles</desc><path d="M23.675 22.709 17.655 53l9.798-7.787-.986-5.87zM37.244 19.01l6.788 7.359L45 22l.967-5.368zM23.883 3.21 0 0l23.675 22.709z"/><path d="m44.032 26.369-20.357-3.66 2.792 16.633zM50.5 22l-4.533-5.368L45 22z"/><path d="m23.675 22.709 20.357 3.66-6.788-7.359-13.36-15.8z"/></svg>
